static/assets/images/products/kubestash/addons/perconaxtradb-stash-addon.svg

<svg width="32" height="32" viewBox="0 0 32 32" fill="none" xmlns="http://www.w3.org/2000/svg">
<g clip-path="url(#clip0)">
<path d="M29.28 7.10383C26.944 3.55183 23.296 1.11983 19.136 0.319834C16.736 -0.160166 14.272 -0.0961658 11.936 0.543834C11.968 0.607834 12 0.639834 12.032 0.639834C12.224 0.831834 12.416 0.991834 12.608 1.18383C13.056 1.59983 13.472 2.04783 13.824 2.55983C13.888 2.71983 14.08 2.81583 14.24 2.75183C14.848 2.68783 15.488 2.68783 16.128 2.81583C16.928 2.97583 17.728 3.32783 18.368 3.80783C18.528 3.90383 18.656 4.03183 18.816 4.15983C18.848 3.71183 18.72 3.29583 18.496 2.94383C19.488 3.32783 20.416 3.90383 21.184 4.63983C21.984 5.37583 22.656 6.23983 23.136 7.19983C23.264 6.75183 23.264 6.23983 23.104 5.79183H23.136L23.2 5.82383C23.808 6.07983 24.384 6.39983 24.864 6.84783C25.824 7.64783 26.432 8.79983 26.56 10.0478C26.624 10.7518 26.56 11.4878 26.336 12.1918C26.176 12.7038 25.952 13.2158 25.696 13.6638C25.664 13.6958 25.664 13.7598 25.664 13.8238C25.728 14.2718 25.792 14.7198 25.824 15.1358C25.888 16.1918 25.824 17.2158 25.664 18.2718C25.6 18.7198 25.504 19.1678 25.408 19.5838C25.248 20.3518 24.96 21.0558 24.576 21.7278C24.544 21.7598 24.544 21.8238 24.576 21.8558C24.704 22.2398 24.768 22.6238 24.736 23.0398C24.704 23.5518 24.576 24.0318 24.32 24.4478C23.872 25.3118 22.976 25.8238 22.048 25.7598C21.856 25.7598 21.696 25.7278 21.536 25.6958C21.472 25.6958 21.408 25.6958 21.408 25.7918C21.344 26.1438 21.12 26.4318 20.8 26.5598C20.736 26.5918 20.64 26.5918 20.576 26.6558C20.512 26.7198 20.576 26.8158 20.576 26.9118V26.9438C20.64 27.3278 20.608 27.7438 20.512 28.1278C20.384 28.6718 20.064 29.1518 19.648 29.4718C19.104 29.8558 18.464 30.1438 17.792 30.2398C17.696 30.2718 17.632 30.2718 17.536 30.2718C17.92 29.8238 18.144 29.2798 18.208 28.6718C18.24 28.0958 18.112 27.4878 17.76 27.0078C17.92 27.1038 18.048 27.1998 18.176 27.2958C18.752 27.6478 18.944 28.3838 18.688 28.9918C18.656 29.0878 18.624 29.1838 18.56 29.2478L18.592 29.2798C18.656 29.2478 18.688 29.2158 18.752 29.1838C19.488 28.6718 19.84 27.7758 19.616 26.9118C19.488 26.3038 19.232 25.7598 18.848 25.2798C18.752 25.1518 18.656 25.0558 18.56 24.9278C18.784 25.0558 19.008 25.2158 19.232 25.3758C19.456 25.5358 19.744 25.5998 20.032 25.5358C20.288 25.4718 20.416 25.2478 20.384 24.9918C20.32 24.7678 20.192 24.6078 20 24.5118C19.424 24.1598 18.848 23.8718 18.24 23.6158C18.112 23.5518 17.952 23.5198 17.824 23.4558C17.856 23.4238 17.888 23.4238 17.92 23.4238C18.304 23.4238 18.688 23.4558 19.072 23.5518C19.808 23.7438 20.48 24.0638 21.12 24.5118C21.344 24.7038 21.6 24.7998 21.888 24.8318C22.336 24.8318 22.752 24.6078 23.04 24.2878C23.328 23.9678 23.552 23.5838 23.648 23.1678C23.744 22.8158 23.712 22.4638 23.584 22.1438C23.488 21.9518 23.392 21.7918 23.296 21.5998C23.456 21.3118 23.616 21.0558 23.744 20.7678C24.064 19.9998 24.288 19.2318 24.416 18.4318C24.512 17.9518 24.576 17.4718 24.64 16.9918C24.736 16.1598 24.768 15.3278 24.736 14.4958C24.704 13.7278 24.64 12.9598 24.512 12.2238C24.384 11.5518 24.192 10.8798 23.904 10.2398C23.904 10.2078 23.872 10.1438 23.872 10.1118C24 10.2398 24.128 10.3358 24.224 10.4318C24.608 10.8798 24.928 11.3918 25.152 11.9358C25.184 11.9678 25.184 11.9998 25.216 12.0318H25.248C25.28 11.7758 25.344 11.5518 25.376 11.2958C25.472 10.7518 25.472 10.2078 25.344 9.69583C25.28 9.31183 25.152 8.92783 24.96 8.54383C24.704 8.03183 24.352 7.55183 23.904 7.19983C23.84 7.16783 23.776 7.13583 23.712 7.10383C23.904 7.90383 23.744 8.73583 23.264 9.40783C23.168 9.18383 23.072 8.95983 22.976 8.76783C22.528 7.87183 21.984 7.03983 21.344 6.27183C20.96 5.79183 20.512 5.37583 20 5.02383C19.872 4.92783 19.712 4.83183 19.552 4.76783L19.52 4.79983C19.68 5.31183 19.68 5.88783 19.552 6.39983C19.488 6.33583 19.424 6.30383 19.392 6.27183C18.976 5.88783 18.592 5.50383 18.144 5.11983C17.568 4.60783 16.864 4.22383 16.128 3.96783C15.712 3.80783 15.296 3.71183 14.848 3.67983C14.464 3.64783 14.08 3.61583 13.696 3.61583C13.184 3.64783 12.672 3.67983 12.16 3.77583C11.712 3.83983 11.264 3.99983 10.816 4.09583C10.656 4.12783 10.496 4.19183 10.368 4.22383C11.04 3.77583 11.808 3.42383 12.576 3.13583C12.544 3.03983 12.48 2.97583 12.448 2.94383C11.936 2.23983 11.328 1.59983 10.624 1.05583C10.56 0.991834 10.464 0.991834 10.368 1.02383C9.248 1.43983 8.16 1.98383 7.168 2.65583C5.696 3.61583 4.416 4.83183 3.328 6.20783C2.368 7.42383 1.6 8.79983 1.056 10.2398C0.864 10.7518 0.704 11.2958 0.544 11.8398C0.416 12.2878 0.32 12.7038 0.224 13.1518C0.16 13.4718 0.128 13.7598 0.096 14.0798C0.064 14.4318 0 14.8478 0 15.2638C0 15.8718 0 16.4798 0.032 17.1198C0.064 17.7918 0.16 18.4318 0.288 19.0718C0.544 18.9758 0.8 18.9118 1.056 18.8478C2.24 18.5918 3.36 18.5918 4.416 18.8478C4.448 18.8158 4.448 18.7838 4.48 18.7518C4.736 18.4318 5.056 18.1758 5.344 17.8878C5.376 17.8558 5.408 17.8558 5.44 17.8238C5.216 18.1758 5.056 18.5918 4.96 19.0078C5.856 19.3278 6.72 19.8718 7.52 20.6398C7.68 20.7998 8 20.9278 8.256 20.9278C10.496 20.9598 12.352 22.3678 12.736 24.5758C12.864 25.3118 13.152 25.6958 13.824 26.0158C13.856 26.0478 13.888 26.0478 13.92 26.0798C14.432 25.9838 14.976 26.0478 15.456 26.2078C15.872 26.3678 16.192 26.7198 16.32 27.1358C16.48 27.6798 16.384 28.2238 16.096 28.6718C16.192 28.9598 16.256 29.2478 16.288 29.5358C16.448 29.5358 16.608 29.5038 16.736 29.4718C17.12 29.3118 17.472 29.0558 17.728 28.7038L17.76 28.7358C17.696 28.8958 17.632 29.0558 17.536 29.1838C17.248 29.6318 16.8 29.9838 16.288 30.1118H16.256C16.256 30.2398 16.224 30.3678 16.224 30.4958C16.16 31.0078 16 31.5198 15.776 31.9678C19.84 32.0318 23.904 30.5278 26.976 27.5838C32.704 22.2398 33.664 13.5678 29.28 7.10383ZM20.384 22.4318C20.352 22.5598 20.32 22.6558 20.288 22.7838C20.256 22.9118 20.256 23.0078 20.224 23.1358C20.192 23.0078 20.16 22.8798 20.128 22.7518C20.032 22.4318 20.096 22.0478 20.288 21.7598C20.48 21.5358 20.736 21.4398 21.024 21.4718C21.472 21.5038 21.856 21.7598 22.08 22.1758C22.08 22.2078 22.112 22.2398 22.112 22.2718C21.856 22.0798 21.568 21.9838 21.248 21.9198C20.896 21.8558 20.512 22.0798 20.384 22.4318ZM22.784 23.7758C22.784 23.8078 22.784 23.8078 22.784 23.7758L22.464 23.8078C22.24 23.8078 21.984 23.7758 21.76 23.7758C21.568 23.7758 21.376 23.7118 21.28 23.5518C21.184 23.4558 21.088 23.3278 21.024 23.1998C20.928 23.0398 20.96 22.8798 21.088 22.7518C21.216 22.6238 21.408 22.6238 21.568 22.7198C21.76 22.8478 21.92 23.0078 22.08 23.1678C22.272 23.3598 22.496 23.5198 22.72 23.6798L22.784 23.7758ZM13.376 14.0798C12.48 14.1758 11.616 13.8878 10.944 13.3438C10.816 13.2478 10.656 13.1198 10.496 13.0238C10.336 12.8958 10.112 12.8638 9.92 12.9278C9.728 12.9918 9.568 13.1518 9.536 13.3758C9.408 13.8238 9.504 14.3358 9.792 14.7198C10.048 15.1038 10.368 15.3918 10.784 15.6158L10.944 15.7118V15.7438C10.784 15.7118 10.656 15.6798 10.496 15.6478C9.984 15.5198 9.504 15.2958 9.088 14.9758C8.608 14.5918 8.32 13.9838 8.416 13.3438C8.448 12.9918 8.576 12.6718 8.832 12.3838C9.024 12.1918 9.28 12.0958 9.536 12.0638C10.08 11.9998 10.656 12.1598 11.072 12.5438C11.456 12.8318 11.84 13.1198 12.224 13.4078C12.768 13.7918 13.408 14.0158 14.08 14.0478C13.792 14.0478 13.568 14.0798 13.376 14.0798ZM15.072 13.2158C14.176 13.1198 13.344 12.7358 12.672 12.1598C12.096 11.6478 11.648 10.9758 11.424 10.2398C11.2 9.56783 11.168 8.86383 11.296 8.19183C11.52 7.07183 12.16 6.07983 13.056 5.40783C13.728 4.89583 14.496 4.51183 15.328 4.28783L15.456 4.25583C15.328 4.44783 15.2 4.60783 15.104 4.76783C14.688 5.43983 14.432 6.17583 14.368 6.97583C14.304 7.55183 14.4 8.15983 14.624 8.70383C14.944 9.50383 15.712 10.0478 16.576 10.1438L16.768 10.1758C16.768 10.1758 16.8 10.1758 16.8 10.2078C16.384 10.3038 15.936 10.3038 15.52 10.2718C14.848 10.2398 14.24 9.85583 13.888 9.27983C13.696 8.89583 13.568 8.47983 13.6 8.06383C13.568 6.94383 13.984 5.85583 14.72 5.02383C14.752 4.99183 14.784 4.95983 14.784 4.95983L14.816 4.92783L14.784 4.79983C14.56 4.99183 14.336 5.15183 14.112 5.34383C13.472 5.91983 12.992 6.68783 12.8 7.55183C12.64 8.12783 12.608 8.73583 12.704 9.31183C12.768 9.98383 13.024 10.6558 13.376 11.2318C13.728 11.8078 14.24 12.2878 14.848 12.6078C15.36 12.8638 15.936 12.9918 16.512 12.9278C17.024 12.8958 17.536 12.7358 17.984 12.4158C18.336 12.1598 18.56 11.8078 18.656 11.3918C18.816 10.8158 18.656 10.2398 18.24 9.82383C18.016 9.59983 17.728 9.43983 17.408 9.40783C17.152 9.37583 16.864 9.37583 16.576 9.37583C16.768 9.27983 16.96 9.15183 17.152 9.05583C17.44 8.89583 17.76 8.83183 18.08 8.79983C18.656 8.76783 19.2 9.08783 19.424 9.63183C19.648 10.0798 19.68 10.5918 19.552 11.0718C19.296 11.9358 18.656 12.6078 17.792 12.8958C17.344 13.0558 16.896 13.1518 16.448 13.2158C15.968 13.2798 15.52 13.2798 15.072 13.2158ZM17.536 16.0958C17.216 15.9358 16.896 15.8398 16.544 15.7758C16.416 15.7438 16.256 15.7758 16.096 15.7438C16.288 15.5838 16.48 15.4878 16.704 15.4238C17.216 15.2638 17.728 15.2958 18.208 15.5198C18.496 15.6158 18.752 15.7438 19.04 15.8718C19.296 15.9998 19.616 15.9358 19.808 15.7438C19.808 15.7438 19.84 15.7438 19.872 15.7118H19.904C20.096 16.2558 20.544 16.6718 21.088 16.8638C21.44 17.0238 22.176 17.2798 22.176 17.2798C21.984 17.2798 21.76 17.2798 21.568 17.2798C21.152 17.2478 20.736 17.1518 20.32 16.9918C20.064 16.8958 19.872 16.7358 19.776 16.4798C19.68 16.5118 19.616 16.5438 19.552 16.5758C19.52 16.6078 19.52 16.6078 19.52 16.6398C19.456 17.0238 19.136 17.3118 18.72 17.3118C18.432 17.3758 18.176 17.2478 17.984 17.0558C17.856 16.8638 17.792 16.6398 17.792 16.4158C17.792 16.2878 17.696 16.1278 17.536 16.0958Z" fill="#1971BD"/>
<path d="M4.96 22.1118C6.528 23.6798 8.16 25.2798 9.824 26.9438C9.056 26.9438 8.288 26.9438 7.456 26.9438C7.456 28.6398 7.456 30.3038 7.456 31.9678C5.728 31.9678 4.096 31.9678 2.4 31.9678C2.4 30.3038 2.4 28.6718 2.4 26.9758C1.568 26.9758 0.8 26.9758 0 26.9758C1.696 25.3438 3.328 23.7118 4.96 22.1118Z" fill="#1971BD"/>
</g>
<defs>
<clipPath id="clip0">
<rect width="32" height="32" fill="white"/>
</clipPath>
</defs>
</svg>

<svg xmlns="http://www.w3.org/2000/svg" width="32" height="32" fill="none" xmlns:v="https://vecta.io/nano"><g clip-path="url(#A)" fill="#1971bd"><path d="M29.28 7.104C26.944 3.552 23.296 1.12 19.136.32c-2.4-.48-4.864-.416-7.2.224.032.064.064.096.096.096.192.192.384.352.576.544a8.32 8.32 0 0 1 1.216 1.376c.064.16.256.256.416.192.608-.064 1.248-.064 1.888.064.8.16 1.6.512 2.24.992.16.096.288.224.448.352.032-.448-.096-.864-.32-1.216a8.15 8.15 0 0 1 2.688 1.696c.8.736 1.472 1.6 1.952 2.56a2.35 2.35 0 0 0-.032-1.408h.032l.064.032c.608.256 1.184.576 1.664 1.024.96.8 1.568 1.952 1.696 3.2.064.704 0 1.44-.224 2.144-.16.512-.384 1.024-.64 1.472-.032.032-.032.096-.032.16.064.448.128.896.16 1.312.064 1.056 0 2.08-.16 3.136-.064.448-.16.896-.256 1.312-.16.768-.448 1.472-.832 2.144-.032.032-.032.096 0 .128.128.384.192.768.16 1.184-.032.512-.16.992-.416 1.408-.448.864-1.344 1.376-2.272 1.312-.192 0-.352-.032-.512-.064-.064 0-.128 0-.128.096-.064.352-.288.64-.608.768-.064.032-.16.032-.224.096s0 .16 0 .256v.032c.064.384.032.8-.064 1.184a2.41 2.41 0 0 1-.864 1.344c-.544.384-1.184.672-1.856.768-.096.032-.16.032-.256.032.384-.448.608-.992.672-1.6.032-.576-.096-1.184-.448-1.664a4.68 4.68 0 0 1 .416.288c.576.352.768 1.088.512 1.696-.032.096-.064.192-.128.256l.032.032c.064-.032.096-.064.16-.096.736-.512 1.088-1.408.864-2.272-.128-.608-.384-1.152-.768-1.632-.096-.128-.192-.224-.288-.352a8.17 8.17 0 0 1 .672.448 1 1 0 0 0 .8.16c.256-.064.384-.288.352-.544-.064-.224-.192-.384-.384-.48a13.01 13.01 0 0 0-1.76-.896c-.128-.064-.288-.096-.416-.16.032-.032.064-.032.096-.032.384 0 .768.032 1.152.128.736.192 1.408.512 2.048.96a1.37 1.37 0 0 0 .768.32c.448 0 .864-.224 1.152-.544s.512-.704.608-1.12c.096-.352.064-.704-.064-1.024-.096-.192-.192-.352-.288-.544.16-.288.32-.544.448-.832a10.22 10.22 0 0 0 .672-2.336c.096-.48.16-.96.224-1.44.096-.832.128-1.664.096-2.496-.032-.768-.096-1.536-.224-2.272a8.87 8.87 0 0 0-.608-1.984c0-.032-.032-.096-.032-.128.128.128.256.224.352.32.384.448.704.96.928 1.504.032.032.032.064.064.096h.032c.032-.256.096-.48.128-.736.096-.544.096-1.088-.032-1.6-.064-.384-.192-.768-.384-1.152-.256-.512-.608-.992-1.056-1.344l-.192-.096c.192.8.032 1.632-.448 2.304-.096-.224-.192-.448-.288-.64a12.89 12.89 0 0 0-1.632-2.496A6.23 6.23 0 0 0 20 5.024a2.04 2.04 0 0 0-.448-.256l-.032.032a3.02 3.02 0 0 1 .032 1.6c-.064-.064-.128-.096-.16-.128-.416-.384-.8-.768-1.248-1.152-.576-.512-1.28-.896-2.016-1.152-.416-.16-.832-.256-1.28-.288-.384-.032-.768-.064-1.152-.064-.512.032-1.024.064-1.536.16-.448.064-.896.224-1.344.32-.16.032-.32.096-.448.128.672-.448 1.44-.8 2.208-1.088-.032-.096-.096-.16-.128-.192-.512-.704-1.12-1.344-1.824-1.888-.064-.064-.16-.064-.256-.032-1.12.416-2.208.96-3.2 1.632-1.472.96-2.752 2.176-3.84 3.552C2.368 7.424 1.6 8.8 1.056 10.24c-.192.512-.352 1.056-.512 1.6a19.56 19.56 0 0 0-.32 1.312c-.064.32-.096.608-.128.928-.032.352-.096.768-.096 1.184 0 .608 0 1.216.032 1.856.032.672.128 1.312.256 1.952.256-.096.512-.16.768-.224 1.184-.256 2.304-.256 3.36 0 .032-.032.032-.064.064-.096.256-.32.576-.576.864-.864.032-.032.064-.032.096-.064a3.84 3.84 0 0 0-.48 1.184c.896.32 1.76.864 2.56 1.632.16.16.48.288.736.288 2.24.032 4.096 1.44 4.48 3.648.128.736.416 1.12 1.088 1.44.032.032.064.032.096.064.512-.096 1.056-.032 1.536.128.416.16.736.512.864.928a1.84 1.84 0 0 1-.224 1.536 4.19 4.19 0 0 1 .192.864 1.89 1.89 0 0 0 .448-.064c.384-.16.736-.416.992-.768l.032.032c-.064.16-.128.32-.224.448-.288.448-.736.8-1.248.928h-.032c0 .128-.032.256-.032.384a4.63 4.63 0 0 1-.448 1.472c4.064.064 8.128-1.44 11.2-4.384 5.728-5.344 6.688-14.016 2.304-20.48zm-8.896 15.328c-.032.128-.064.224-.096.352s-.032.224-.064.352l-.096-.384c-.096-.32-.032-.704.16-.992a.81.81 0 0 1 .736-.288c.448.032.832.288 1.056.704 0 .032.032.064.032.096-.256-.192-.544-.288-.864-.352-.352-.064-.736.16-.864.512zm2.4 1.344c0 .032 0 .032 0 0l-.32.032c-.224 0-.48-.032-.704-.032-.192 0-.384-.064-.48-.224a1.42 1.42 0 0 1-.256-.352c-.096-.16-.064-.32.064-.448s.32-.128.48-.032c.192.128.352.288.512.448.192.192.416.352.64.512l.064.096zm-9.408-9.696c-.896.096-1.76-.192-2.432-.736-.128-.096-.288-.224-.448-.32a.62.62 0 0 0-.576-.096c-.192.064-.352.224-.384.448-.128.448-.032.96.256 1.344.256.384.576.672.992.896l.16.096v.032l-.448-.096a3.82 3.82 0 0 1-1.408-.672c-.48-.384-.768-.992-.672-1.632a1.62 1.62 0 0 1 .416-.96 1.19 1.19 0 0 1 .704-.32c.544-.064 1.12.096 1.536.48l1.152.864a3.5 3.5 0 0 0 1.856.64c-.288 0-.512.032-.704.032zm1.696-.864c-.896-.096-1.728-.48-2.4-1.056-.576-.512-1.024-1.184-1.248-1.92a4.06 4.06 0 0 1-.128-2.048 4.63 4.63 0 0 1 1.76-2.784 6.56 6.56 0 0 1 2.272-1.12l.128-.032c-.128.192-.256.352-.352.512-.416.672-.672 1.408-.736 2.208-.064.576.032 1.184.256 1.728.32.8 1.088 1.344 1.952 1.44l.192.032s.032 0 .032.032c-.416.096-.864.096-1.28.064-.672-.032-1.28-.416-1.632-.992-.192-.384-.32-.8-.288-1.216a4.42 4.42 0 0 1 1.12-3.04l.064-.064.032-.032-.032-.128c-.224.192-.448.352-.672.544-.64.576-1.12 1.344-1.312 2.208a4.1 4.1 0 0 0-.096 1.76c.064.672.32 1.344.672 1.92a3.81 3.81 0 0 0 1.472 1.376c.512.256 1.088.384 1.664.32.512-.032 1.024-.192 1.472-.512.352-.256.576-.608.672-1.024a1.58 1.58 0 0 0-.416-1.568c-.224-.224-.512-.384-.832-.416-.256-.032-.544-.032-.832-.032.192-.096.384-.224.576-.32.288-.16.608-.224.928-.256a1.36 1.36 0 0 1 1.344.832c.224.448.256.96.128 1.44-.256.864-.896 1.536-1.76 1.824a6.83 6.83 0 0 1-1.344.32c-.48.064-.928.064-1.376 0zm2.464 2.88c-.32-.16-.64-.256-.992-.32-.128-.032-.288 0-.448-.032.192-.16.384-.256.608-.32.512-.16 1.024-.128 1.504.096.288.096.544.224.832.352a.68.68 0 0 0 .768-.128s.032 0 .064-.032h.032c.192.544.64.96 1.184 1.152.352.16 1.088.416 1.088.416h-.608c-.416-.032-.832-.128-1.248-.288-.256-.096-.448-.256-.544-.512-.096.032-.16.064-.224.096-.032.032-.032.032-.032.064-.064.384-.384.672-.8.672-.288.064-.544-.064-.736-.256-.128-.192-.192-.416-.192-.64 0-.128-.096-.288-.256-.32zM4.96 22.112l4.864 4.832H7.456v5.024H2.4v-4.992H0l4.96-4.864z"/></g><defs><clipPath id="A"><path fill="#fff" d="M0 0h32v32H0z"/></clipPath></defs></svg>
